resources/icons/color/app.svg

<svg width="64" height="64" viewBox="0 0 64 64" fill="none" xmlns="http://www.w3.org/2000/svg">
<path d="M6 13C6 9.13401 9.13401 6 13 6H51C54.866 6 58 9.13401 58 13V51C58 54.866 54.866 58 51 58H13C9.13401 58 6 54.866 6 51V13Z" fill="url(#paint0_linear_41743_62459)"/>
<path d="M6 13C6 9.13401 9.13401 6 13 6H51C54.866 6 58 9.13401 58 13V51C58 54.866 54.866 58 51 58H13C9.13401 58 6 54.866 6 51V13Z" fill="url(#paint1_radial_41743_62459)" fill-opacity="0.2"/>
<path fill-rule="evenodd" clip-rule="evenodd" d="M51 7H13C9.68629 7 7 9.68629 7 13V51C7 54.3137 9.68629 57 13 57H51C54.3137 57 57 54.3137 57 51V13C57 9.68629 54.3137 7 51 7ZM13 6C9.13401 6 6 9.13401 6 13V51C6 54.866 9.13401 58 13 58H51C54.866 58 58 54.866 58 51V13C58 9.13401 54.866 6 51 6H13Z" fill="url(#paint2_linear_41743_62459)"/>
<path fill-rule="evenodd" clip-rule="evenodd" d="M21 24C21 22.8954 21.8954 22 23 22H30.5197C31.6242 22 32.5197 22.8954 32.5197 24L32.5196 32.4804L32.5205 32.5L41.0088 32.5C42.1134 32.5 43.0088 33.3954 43.0088 34.5V42.0196C43.0088 43.1242 42.1134 44.0196 41.0088 44.0196H31.4891V44H23.0009C21.8963 44 21.0009 43.1046 21.0009 42L21 24ZM23 23L30.5197 23C31.0719 23 31.5197 23.4477 31.5197 24L31.5196 32.4804L22 32.4803L22 24C22 23.4477 22.4477 23 23 23ZM22.0009 33.5196L22.0009 42C22.0009 42.5523 22.4486 43 23.0009 43H31.4891L31.4891 33.5197L22.0009 33.5196ZM41.0088 43.0196H32.5205L32.5205 33.5H41.0088C41.5611 33.5 42.0088 33.9477 42.0088 34.5V42.0196C42.0088 42.5719 41.5611 43.0196 41.0088 43.0196Z" fill="url(#paint3_linear_41743_62459)"/>
<path d="M32.1825 27.9142C31.4014 27.1332 31.4014 25.8668 32.1825 25.0858L36.5946 20.6737C37.3756 19.8926 38.642 19.8926 39.423 20.6737L43.8351 25.0858C44.6162 25.8668 44.6162 27.1332 43.8351 27.9142L39.423 32.3263C38.642 33.1074 37.3756 33.1074 36.5946 32.3263L32.1825 27.9142Z" fill="url(#paint4_linear_41743_62459)"/>
<defs>
<linearGradient id="paint0_linear_41743_62459" x1="20.4444" y1="6" x2="27.0222" y2="58.6222" gradientUnits="userSpaceOnUse">
<stop stop-color="white"/>
<stop offset="1" stop-color="#EBEBEB"/>
</linearGradient>
<radialGradient id="paint1_radial_41743_62459" cx="0" cy="0" r="1" gradientUnits="userSpaceOnUse" gradientTransform="translate(22.6111 19.5417) rotate(56.3099) scale(49.4762 42.8159)">
<stop offset="0.177083" stop-color="white"/>
<stop offset="1" stop-color="#B8B8B8"/>
</radialGradient>
<linearGradient id="paint2_linear_41743_62459" x1="22.7917" y1="6" x2="29.7931" y2="58.5109" gradientUnits="userSpaceOnUse">
<stop stop-color="#BBBBBB"/>
<stop offset="1" stop-color="#888888"/>
</linearGradient>
<linearGradient id="paint3_linear_41743_62459" x1="21" y1="22" x2="43.0196" y2="44.0088" gradientUnits="userSpaceOnUse">
<stop stop-color="#EB6D00"/>
<stop offset="1" stop-color="#B85500"/>
</linearGradient>
<linearGradient id="paint4_linear_41743_62459" x1="31.5967" y1="20.0879" x2="44.4209" y2="32.9121" gradientUnits="userSpaceOnUse">
<stop stop-color="#EB6D00"/>
<stop offset="1" stop-color="#B85500"/>
</linearGradient>
</defs>
</svg>

<svg xmlns="http://www.w3.org/2000/svg" width="64" height="64" fill="currentColor"><path fill="url(#a)" d="M6 13a7 7 0 0 1 7-7h38a7 7 0 0 1 7 7v38a7 7 0 0 1-7 7H13a7 7 0 0 1-7-7V13Z"/><path fill="url(#b)" fill-opacity=".2" d="M6 13a7 7 0 0 1 7-7h38a7 7 0 0 1 7 7v38a7 7 0 0 1-7 7H13a7 7 0 0 1-7-7V13Z"/><path fill="url(#c)" fill-rule="evenodd" d="M51 7H13a6 6 0 0 0-6 6v38a6 6 0 0 0 6 6h38a6 6 0 0 0 6-6V13a6 6 0 0 0-6-6ZM13 6a7 7 0 0 0-7 7v38a7 7 0 0 0 7 7h38a7 7 0 0 0 7-7V13a7 7 0 0 0-7-7H13Z" clip-rule="evenodd"/><path fill="url(#d)" fill-rule="evenodd" d="M21 24a2 2 0 0 1 2-2h7.52a2 2 0 0 1 2 2v8.5h8.489a2 2 0 0 1 2 2v7.52a2 2 0 0 1-2 2h-9.52V44h-8.488a2 2 0 0 1-2-2L21 24Zm2-1h7.52a1 1 0 0 1 1 1v8.48H22V24a1 1 0 0 1 1-1Zm-1 10.52V42a1 1 0 0 0 1 1h8.49v-9.48H22Zm19.009 9.5H32.52V33.5h8.489a1 1 0 0 1 1 1v7.52a1 1 0 0 1-1 1Z" clip-rule="evenodd"/><path fill="url(#e)" d="M32.182 27.914a2 2 0 0 1 0-2.828l4.413-4.412a2 2 0 0 1 2.828 0l4.412 4.412a2 2 0 0 1 0 2.828l-4.412 4.412a2 2 0 0 1-2.828 0l-4.413-4.412Z"/><defs><linearGradient id="a" x1="20.444" x2="27.022" y1="6" y2="58.622" gradientUnits="userSpaceOnUse"><stop stop-color="#fff"/><stop offset="1" stop-color="#EBEBEB"/></linearGradient><linearGradient id="c" x1="22.792" x2="29.793" y1="6" y2="58.511" gradientUnits="userSpaceOnUse"><stop stop-color="#BBB"/><stop offset="1" stop-color="#888"/></linearGradient><linearGradient id="d" x1="21" x2="43.02" y1="22" y2="44.009" gradientUnits="userSpaceOnUse"><stop stop-color="#EB6D00"/><stop offset="1" stop-color="#B85500"/></linearGradient><linearGradient id="e" x1="31.597" x2="44.421" y1="20.088" y2="32.912" gradientUnits="userSpaceOnUse"><stop stop-color="#EB6D00"/><stop offset="1" stop-color="#B85500"/></linearGradient><radialGradient id="b" cx="0" cy="0" r="1" gradientTransform="rotate(56.31 -6.951 30.895) scale(49.4762 42.8159)" gradientUnits="userSpaceOnUse"><stop offset=".177" stop-color="#fff"/><stop offset="1" stop-color="#B8B8B8"/></radialGradient></defs></svg>
